X: 17806
T: Hop Break
R: jig
M: 6/8
K: Bminor
F|:B2c dcB|efg f2d|B2f fed|cAc edc|
B2c dcB|efg f2f|fed cAc|B3B2F:|
|:fdB fdB|geB geB|ecA ecA|fdB fdB|
dBG dBG|efg f2e|dcB AFc|B3B2F:|

